X: 53
T: Grtlten
S: Hjort Anders Olsson
O: Bingsj, Dalarna
Z:Transcribed to abcby Jon Magnusson 080520
R: Polska
M: 3/4
L: 1/16
K: Dm
(A2|:d3)(c AB)AG F2(AF)|E2D^C D8|A3(^c d2)(e2 g2)(ag)|f4 e6 (A2|
d3)(c AB)AG F2(AF)|G2=BG A4 A4|A3(^c d2)(e2 f2)(af)|[1 (ef)e^c d6 A2:|[2 (ef)e^c d6 eg|]
|:f2ed c4 A3=c|=B2A^G A6 (A2|A2)=B2 c4 (AB)cd|^f2f2 ^c4 A4|
G3(G c2)(c2 A2)(=BA)|G2AG F6 (E2|D4) {e}f2(gf e2)(fe)|d2ed ^c6 (c2|
d3)(e g2a2) f4|f2ed (^cd)ec A4|A3(^c d3)(e f2)af|[1 (eg)e^c d6 eg:|[2 (eg)e^c d8|]
